X:1
T:A-Beggin' I Will Go
M:4/4
L:1/8
K:C
 c| cG GF E2 DE| CD EF G3 G| Gc cc c2 cc| de fd e2|| dc| e2d-c B2A-B|\
c-BA-GA-G FE| F2 A2 G2 B2| c6 z||

